RestoDelMundo/Suecia/Otras Categorias/Hemsjo If.svg

<svg xmlns="http://www.w3.org/2000/svg" viewBox="0 0 660 660"><path fill="#ffe600" d="M155.254 536.273C39.917 441.194 23.49 270.612 118.569 155.272c95.078-115.34 265.662-131.765 381-36.687l12.958-15.719C388.508.631 205.085 18.292 102.851 142.313.615 266.335 18.276 449.758 142.296 551.993z"/><path d="m512.528 102.866-12.958 15.719c115.339 95.079 131.765 265.661 36.687 381-95.08 115.339-265.663 131.765-381.003 36.687l-12.958 15.719c124.022 102.234 307.443 84.571 409.681-39.448 102.234-124.019 84.571-307.442-39.449-409.677"/><path fill="#ffe600" d="M520.536 486.627c-87.923 106.658-245.665 121.847-352.323 33.927l-12.959 15.72c115.34 95.078 285.923 78.652 381.003-36.687 95.078-115.34 78.651-285.922-36.687-381l-12.959 15.719c106.658 87.921 121.846 245.664 33.925 352.321"/><path d="M118.569 155.272c-95.08 115.339-78.653 285.922 36.685 381.001l12.959-15.72C61.556 432.631 46.367 274.888 134.29 168.229c87.92-106.656 245.664-121.846 352.321-33.925l12.959-15.719c-115.339-95.078-285.923-78.652-381.001 36.687"/><path fill="#ffe600" d="M486.611 134.305c-106.657-87.921-264.4-72.732-352.321 33.925-87.923 106.658-72.734 264.402 33.923 352.324z"/><path d="M520.536 486.627c87.921-106.657 72.733-264.4-33.925-352.322L168.213 520.554c106.658 87.92 264.4 72.731 352.323-33.927"/><path fill="#ffe600" d="M408.579 413.713h30.736l-.027-70.958h60.693v-30.74H439.29v-40.189h76.049v-30.682h-106.76Z"/><path d="M164.348 342.784h57.037v70.929h30.712V241.144h-30.712v70.93h-57.037v-70.93h-30.709v172.569h30.709ZM312.058 241.144v104.913l30.71-37.255v-67.658Z"/><path fill="#ffe600" d="M312.058 413.713h30.71V308.802l-30.71 37.255Z"/></svg>

<svg enable-background="new 0 0 660 660" viewBox="0 0 660 660" xmlns="http://www.w3.org/2000/svg"><path d="M 155.254 536.273 C 39.917 441.194 23.49 270.612 118.569 155.272 c 95.078 -115.34 265.662 -131.765 381 -36.687 l 0 0 l 12.958 -15.719 C 388.508 .631 205.085 18.292 102.851 142.313 C .615 266.335 18.276 449.758 142.296 551.993 L 155.254 536.273 L 155.254 536.273 z" fill="#ffe600"/><path d="M 512.528 102.866 l -12.958 15.719 c 115.339 95.079 131.765 265.661 36.687 381 c -95.08 115.339 -265.663 131.765 -381.003 36.687 l -12.958 15.719 c 124.022 102.234 307.443 84.571 409.681 -39.448 C 654.211 388.524 636.548 205.101 512.528 102.866 z"/><path d="M 520.536 486.627 c -87.923 106.658 -245.665 121.847 -352.323 33.927 l 0 0 l -12.959 15.72 c 115.34 95.078 285.923 78.652 381.003 -36.687 c 95.078 -115.34 78.651 -285.922 -36.687 -381 l -12.959 15.719 C 593.269 222.227 608.457 379.97 520.536 486.627 z" fill="#ffe600"/><path d="M 118.569 155.272 c -95.08 115.339 -78.653 285.922 36.685 381.001 l 0 0 l 12.959 -15.72 C 61.556 432.631 46.367 274.888 134.29 168.229 c 87.92 -106.656 245.664 -121.846 352.321 -33.925 l 0 0 l 12.959 -15.719 l 0 0 C 384.231 23.507 213.647 39.933 118.569 155.272 z"/><path d="M 486.611 134.305 c -106.657 -87.921 -264.4 -72.732 -352.321 33.925 c -87.923 106.658 -72.734 264.402 33.923 352.324 L 486.611 134.305 L 486.611 134.305 z" fill="#ffe600"/><path d="M 520.536 486.627 c 87.921 -106.657 72.733 -264.4 -33.925 -352.322 L 168.213 520.554 l 0 0 C 274.871 608.474 432.613 593.285 520.536 486.627 z"/><path d="M 408.579 413.713 L 439.315 413.713 L 439.288 342.755 L 499.981 342.755 L 499.981 312.015 L 439.29 312.015 L 439.29 271.826 L 515.339 271.826 L 515.339 241.144 L 408.579 241.144 Z" fill="#ffe600"/><path d="M 164.348 342.784 L 221.385 342.784 L 221.385 413.713 L 252.097 413.713 L 252.097 241.144 L 221.385 241.144 L 221.385 312.074 L 164.348 312.074 L 164.348 241.144 L 133.639 241.144 L 133.639 413.713 L 164.348 413.713 Z"/><path d="M 312.058 241.144 L 312.058 346.057 L 342.768 308.802 L 342.768 241.144 Z"/><path d="M 312.058 413.713 L 342.768 413.713 L 342.768 308.802 L 312.058 346.057 Z" fill="#ffe600"/></svg>
